icons/hicolor/scalable/actions/abm-10-buds-symbolic.svg

<svg height="16" viewBox="0 0 16 16" width="16" xmlns="http://www.w3.org/2000/svg"><path d="m4.7792969 2c-.4651879-.0018872-.9111563.2741691-1.1074219.7421875l-.8652344 1.9921875c-.2616881.6038949.0211053 1.3086245.625 1.5703125.6038949.2616882 1.3066719-.0406368 1.5683594-.6445313l.8867188-1.9921874c.2616872-.6038949-.0205062-1.3086246-.6445313-1.5703126-.150974-.0654216-.3078282-.0970272-.4628906-.0976562zm6.4589841 0c-.15349.000629-.309962.0322346-.460937.0976562-.603895.261688-.9062192.9865474-.644532 1.5703126l.886719 1.9921874c.241558.6038945.924803.9062195 1.548828.6445313.603895-.261688.906219-.9664176.644532-1.5703125l-.865235-1.9921875c-.211363-.4680184-.648905-.7440747-1.109375-.7421875zm-4.8691404 1.5273438c-.0201303.1006489-.0593497.2014867-.0996094.3222656l-.8867187 1.9921875c-.3623367.8051934-1.3074893 1.1879101-2.1328125.8457031-.8051928-.3623369-1.1886663-1.2475412-.8867188-2.0527344-.4025968.4831158-.4835882 1.2078805-.1816406 2.0332032.5435053 1.5097376 1.9325512 1.8110845 3.28125 1.2675781l.8261719-.3222657c1.1272705-.4227265 1.6502023-1.4690317 1.328125-2.5761718-.2214276-.744804-.7850602-1.1071691-1.2480469-1.5097656zm3.28125.0195312c-.5032463.3824667-1.0461494.7454304-1.2675781 1.4902344-.2849134.9793892.0918365 1.9093158.9628906 2.4179687h4.0449219c.171016-.208569.31762-.4617042.427734-.7675781.301947-.8253232.200826-1.5500871-.18164-2.0332031.301946.8051932-.081526 1.6903974-.886719 2.0527343-.805193.3422072-1.750944-.0405105-2.113281-.8457031l-.8847659-1.9921875c-.0402592-.1006494-.0814332-.2014865-.1015625-.3222656zm4.6914064 1.6113281c.100649.5636353.05872 1.1068848-.142578 1.6503907-.084805.2374536-.192216.4520815-.31836.6464843h1.816407c.033866-.1433218.052734-.2916518.052734-.4453125 0-.8857128-.60301-1.6301343-1.408203-1.8515625zm-12.6835939.0195313c-.80519323.2214281-1.4082031.9658506-1.4082031 1.8515625 0 1.0668819.8452282 1.9316406 1.9121094 1.9316406.4831161 0 .9259696-.1810729 1.2480468-.4628906-.724674-.2616868-1.2872978-.8238702-1.609375-1.6894531-.2012983-.5636353-.2432273-1.1074838-.1425781-1.6308594z" fill="#2e3436" stroke-width=".201298"/><path class="warning" d="m9.5 8c-.832031 0-1.5.667969-1.5 1.5v5c0 .832031.667969 1.5 1.5 1.5h5c.832031 0 1.5-.667969 1.5-1.5v-5c0-.832031-.667969-1.5-1.5-1.5zm1.5 1h2v2.5s0 .5-.5.5h-1c-.5 0-.5-.5-.5-.5zm.5 4h1c.277344 0 .5.222656.5.5v1c0 .277344-.222656.5-.5.5h-1c-.277344 0-.5-.222656-.5-.5v-1c0-.277344.222656-.5.5-.5zm0 0" fill="#ff7800"/></svg>

<?xml version="1.0" encoding="UTF-8" standalone="no"?>
<svg
   height="16"
   viewBox="0 0 16 16"
   width="16"
   version="1.1"
   id="svg2"
   sodipodi:docname="abm-10-airpod3-symbolic.svg"
   inkscape:version="1.3.2 (091e20ef0f, 2023-11-25)"
   xmlns:inkscape="http://www.inkscape.org/namespaces/inkscape"
   xmlns:sodipodi="http://sodipodi.sourceforge.net/DTD/sodipodi-0.dtd"
   xmlns="http://www.w3.org/2000/svg"
   xmlns:svg="http://www.w3.org/2000/svg">
  <defs
     id="defs2" />
  <sodipodi:namedview
     id="namedview2"
     pagecolor="#ffffff"
     bordercolor="#000000"
     borderopacity="0.25"
     inkscape:showpageshadow="2"
     inkscape:pageopacity="0.0"
     inkscape:pagecheckerboard="0"
     inkscape:deskcolor="#d1d1d1"
     inkscape:zoom="72.8125"
     inkscape:cx="7.993133"
     inkscape:cy="8"
     inkscape:window-width="2560"
     inkscape:window-height="1371"
     inkscape:window-x="0"
     inkscape:window-y="32"
     inkscape:window-maximized="1"
     inkscape:current-layer="svg2" />
  <path
     id="path2"
     style="fill:#2e3436;fill-opacity:1;stroke-width:0.201298"
     d="M 4.7792969 2 C 4.314109 1.9981128 3.8681406 2.2741691 3.671875 2.7421875 L 2.8066406 4.734375 C 2.5449525 5.3382699 2.8277459 6.0429995 3.4316406 6.3046875 C 4.0355355 6.5663757 4.7383125 6.2640507 5 5.6601562 L 5.8867188 3.6679688 C 6.148406 3.0640739 5.8662126 2.3593442 5.2421875 2.0976562 C 5.0912135 2.0322346 4.9343593 2.000629 4.7792969 2 z M 11.238281 2 C 11.084791 2.000629 10.928319 2.0322346 10.777344 2.0976562 C 10.173449 2.3593442 9.8711248 3.0842036 10.132812 3.6679688 L 11.019531 5.6601562 C 11.261089 6.2640507 11.944334 6.5663757 12.568359 6.3046875 C 13.172254 6.0429995 13.474578 5.3382699 13.212891 4.734375 L 12.347656 2.7421875 C 12.136293 2.2741691 11.698751 1.9981128 11.238281 2 z M 6.3691406 3.5273438 C 6.3490103 3.6279927 6.3097909 3.7288305 6.2695312 3.8496094 L 5.3828125 5.8417969 C 5.0204758 6.6469903 4.0753232 7.029707 3.25 6.6875 C 2.4448072 6.3251631 2.0613337 5.4399588 2.3632812 4.6347656 C 1.9606844 5.1178814 1.879693 5.8426461 2.1816406 6.6679688 C 2.7251459 8.1777064 4.1141918 8.4790533 5.4628906 7.9355469 L 6.2890625 7.6132812 C 7.416333 7.1905547 7.9392648 6.1442495 7.6171875 5.0371094 C 7.3957599 4.2923054 6.8321273 3.9299403 6.3691406 3.5273438 z M 9.6503906 3.546875 C 9.1471443 3.9293417 8.6042412 4.2923054 8.3828125 5.0371094 C 8.0978991 6.0164986 8.474649 6.9464252 9.3457031 7.4550781 L 13.390625 7.4550781 C 13.561641 7.2465091 13.708245 6.9933739 13.818359 6.6875 C 14.120306 5.8621768 14.019185 5.1374129 13.636719 4.6542969 C 13.938665 5.4594901 13.555193 6.3446943 12.75 6.7070312 C 11.944807 7.0492384 10.999056 6.6665207 10.636719 5.8613281 L 9.7519531 3.8691406 C 9.7116939 3.7684912 9.6705199 3.6676541 9.6503906 3.546875 z M 14.341797 5.1582031 C 14.442446 5.7218384 14.400517 6.2650879 14.199219 6.8085938 C 14.114414 7.0460474 14.007003 7.2606753 13.880859 7.4550781 L 15.697266 7.4550781 C 15.731132 7.3117563 15.75 7.1634263 15.75 7.0097656 C 15.75 6.1240528 15.14699 5.3796313 14.341797 5.1582031 z M 1.6582031 5.1777344 C 0.85300987 5.3991625 0.25 6.143585 0.25 7.0292969 C 0.25 8.0961788 1.0952282 8.9609375 2.1621094 8.9609375 C 2.6452255 8.9609375 3.088079 8.7798646 3.4101562 8.4980469 C 2.6854822 8.2363601 2.1228584 7.6741767 1.8007812 6.8085938 C 1.5994829 6.2449585 1.5575539 5.70111 1.6582031 5.1777344 z " />
  <path
     class="warning"
     d="m9.5 8c-.832031 0-1.5.667969-1.5 1.5v5c0 .832031.667969 1.5 1.5 1.5h5c.832031 0 1.5-.667969 1.5-1.5v-5c0-.832031-.667969-1.5-1.5-1.5zm1.5 1h2v2.5s0 .5-.5.5h-1c-.5 0-.5-.5-.5-.5zm.5 4h1c.277344 0 .5.222656.5.5v1c0 .277344-.222656.5-.5.5h-1c-.277344 0-.5-.222656-.5-.5v-1c0-.277344.222656-.5.5-.5zm0 0"
     fill="#ff7800"
     id="path1" />
</svg>
